!!!COM: Hugo Wolf
!!!CNT: Deutscher
!!!TXO: Deutsche 
!!!OTL: So Lang Man Nu2chtern Ist
!!!ODT: 1889/01/16
!!!ONM: No. 36
!!!LYR: Johann Wolfgang von Goethe
!!!ENC: Brian Bice
!!!YOR: 45 Songs on Poems of Goethe and Eichendorff, Dover Publications, 1995
!!NB: Vocal melody and text only encoded.
**kern	**silbe
*clefG2	*
*k[]	*
*M2/4	*
=1	=1
8r	.
{8a	{So
8a	lang
8a	man
=2	=2
8a	nu2ch-
8ee	-tern
4ee	ist,
=3	=3
8r	.
8a	ge-
8g	-fa2llt
8cc	das
=4	=4
(8.f#	Schlech-
32a	|
32g)	|
4f#}	-te;}
=5	=5
{4d	{wie
8d	man
8d	ge-
=6	=6
8d	-trun-
8b	-ken
8b	hat,
[8d	weiss
=7	=7
8d]	|
4dd	man
8ff#	das
=8	=8
4ff#	Rech-
4b}	-te;}
=10	=10
{4dd	{nur
8dd	ist
8ffn	das
=11	=11
8.ee	U2-
16e	-ber-
8e	-mass
[8dd	auch
=12	=12
8dd]	|
4dd	gleich
8ff	zu-
=13	=13
4ee	-han-
4a}	-den:}
=14	=14
{4a	{Ha-
8a	-fis,
8a	o
=15	=15
8.a	leh-
16ff#	-re
8ff#	mich,
8ee	wie
=16	=16
(8dd	du's
4a)	|
8g	ver-
=17	=17
8f#	-stan-
8e	|
4d}	-den.}
=22	=22
{4b	{Denn
8b	mei-
8cc	-ne
=23	=23
8b	Mei-
8b	-nung
8b	ist
[8b	nicht
=24	=24
8b]	|
4b	u2-
8dd	-ber-
=25	=25
4cc#	-trie-
4f#}	-ben:}
=26	=26
{4d	{wenn
8d	man
8d	niht
=27	=27
8d	trin-
8b	-ken
8b	kann,
[8dd	soll
=28	=28
8dd]	|
4dd	man
8ff#	nicht
=29	=29
4ff#	lie-
4b}	-ben;}
=31	=31
{4dd	{doch
8dd	sollt
8dd	ihr
=32	=32
8.b	trin-
16b	-ker
8b	euch
[8dd	nicht
=33	=33
8dd]	|
4dd	bes-
8ff	-ser
=34	=34
4ee	du2n-
4a}	-ken:}
=35	=35
{4a	{wenn
8a	man
8a	nicht
=36	=36
8a	lie-
8ff#	-ben
8ff#	kann,
8ee	|
=37	=37
8dd	soll
8a	|
8a	man
8g	nicht
=38	=38
8f#	trin-
8e	|
4d}	-ken.}
*-	*-
